packages/icons/svgs/duotone/Source=refresh-pause.svg

<svg width="24" height="24" viewBox="0 0 24 24" fill="none" xmlns="http://www.w3.org/2000/svg">
<g opacity="0.5">
<path d="M21.9344 0.709061C22.4816 0.783268 22.8651 1.28708 22.7909 1.83436L21.9909 7.73436C21.9168 8.28078 21.4144 8.6641 20.8678 8.59122L16.8482 8.05527C16.4899 6.9743 15.5333 6.16602 14.3709 6.0227C14.577 5.85592 14.8486 5.77096 15.1322 5.80877L18.1651 6.21315C18.4068 6.24538 18.6442 6.233 18.869 6.18234C17.2402 4.22394 14.7644 2.99999 12 2.99999C7.05228 2.99999 3 7.05228 3 12C3 12.5523 2.55228 13 2 13C1.44772 13 1 12.5523 1 12C1 5.94771 5.94772 0.999993 12 0.999993C15.3287 0.999993 18.3356 2.46108 20.3398 4.82369C20.372 4.71943 20.3961 4.61113 20.4113 4.49942L20.8091 1.56563C20.8833 1.01835 21.3871 0.634854 21.9344 0.709061Z" fill="black" style="fill:black;fill-opacity:1;"/>
<path d="M7.15177 15.9447L3.13216 15.4088C2.58558 15.3359 2.08316 15.7192 2.00907 16.2656L1.20907 22.1656C1.13486 22.7129 1.51836 23.2167 2.06564 23.2909C2.61291 23.3651 3.11673 22.9816 3.19093 22.4344L3.58874 19.5006C3.60388 19.3889 3.62798 19.2806 3.66021 19.1763C5.66445 21.5389 8.67126 23 12 23C18.0523 23 23 18.0523 23 12C23 11.4477 22.5523 11 22 11C21.4477 11 21 11.4477 21 12C21 16.9477 16.9477 21 12 21C9.23562 21 6.75979 19.776 5.13099 17.8177C5.35578 17.767 5.59319 17.7546 5.83493 17.7868L8.86784 18.1912C9.15139 18.229 9.42301 18.1441 9.62913 17.9773C8.46668 17.834 7.51013 17.0257 7.15177 15.9447Z" fill="black" style="fill:black;fill-opacity:1;"/>
</g>
<path d="M10.1818 8H8.36364C8.26719 8 8.1747 8.03831 8.10651 8.10651C8.03831 8.1747 8 8.26719 8 8.36364V15.6364C8 15.7328 8.03831 15.8253 8.10651 15.8935C8.1747 15.9617 8.26719 16 8.36364 16H10.1818C10.2783 16 10.3708 15.9617 10.4389 15.8935C10.5071 15.8253 10.5455 15.7328 10.5455 15.6364V8.36364C10.5455 8.26719 10.5071 8.1747 10.4389 8.10651C10.3708 8.03831 10.2783 8 10.1818 8Z" fill="black" style="fill:black;fill-opacity:1;"/>
<path d="M15.6364 8H13.8182C13.7217 8 13.6292 8.03831 13.5611 8.10651C13.4929 8.1747 13.4545 8.26719 13.4545 8.36364V15.6364C13.4545 15.7328 13.4929 15.8253 13.5611 15.8935C13.6292 15.9617 13.7217 16 13.8182 16H15.6364C15.7328 16 15.8253 15.9617 15.8935 15.8935C15.9617 15.8253 16 15.7328 16 15.6364V8.36364C16 8.26719 15.9617 8.1747 15.8935 8.10651C15.8253 8.03831 15.7328 8 15.6364 8Z" fill="black" style="fill:black;fill-opacity:1;"/>
</svg>

<svg xmlns="http://www.w3.org/2000/svg" width="24" height="24" viewBox="0 0 24 24"><path d="M21.934.71a1 1 0 0 1 .857 1.124l-.8 5.9a1 1 0 0 1-1.123.857l-4.02-.536a3 3 0 0 0-2.477-2.032 1 1 0 0 1 .761-.214l3.033.404c.242.032.48.02.704-.03C17.24 4.222 14.764 3 12 3c-4.948 0-9 4.052-9 9a1 1 0 1 1-2 0C1 5.948 5.948 1 12 1c3.329 0 6.336 1.461 8.34 3.824q.048-.157.071-.325l.398-2.933a1 1 0 0 1 1.125-.857M7.152 15.945l-4.02-.536a1 1 0 0 0-1.123.857l-.8 5.9a1 1 0 0 0 1.982.268l.398-2.933q.023-.168.071-.325C5.664 21.54 8.671 23 12 23c6.052 0 11-4.948 11-11a1 1 0 1 0-2 0c0 4.948-4.052 9-9 9-2.764 0-5.24-1.224-6.869-3.182q.34-.078.704-.031l3.033.404a1 1 0 0 0 .761-.214 3 3 0 0 1-2.477-2.032" opacity=".55"/><path d="M10.182 8H8.364A.364.364 0 0 0 8 8.364v7.272a.364.364 0 0 0 .364.364h1.818a.363.363 0 0 0 .364-.364V8.364A.364.364 0 0 0 10.182 8m5.454 0h-1.818a.363.363 0 0 0-.364.364v7.272a.364.364 0 0 0 .364.364h1.818a.364.364 0 0 0 .364-.364V8.364A.364.364 0 0 0 15.636 8"/></svg>
